bots/hooky/seasonal/christmas.svg

<svg width="2048" height="2048" fill="none" xmlns="http://www.w3.org/2000/svg"><g clip-path="url(#a)"><path fill="url(#b)" d="M0 0h2048v2048H0z"/><g filter="url(#c)"><path d="M943 922.5c0 49.114-9.674 97.75-28.469 143.12a373.986 373.986 0 0 1-81.073 121.34 373.889 373.889 0 0 1-121.334 81.07A373.912 373.912 0 0 1 569 1296.5c-49.114 0-97.748-9.67-143.123-28.47a373.893 373.893 0 0 1-121.335-81.07 374.002 374.002 0 0 1-81.073-121.34A373.967 373.967 0 0 1 195 922.5V0h112.2v922.5a261.79 261.79 0 0 0 161.614 241.87A261.737 261.737 0 0 0 569 1184.3c34.38 0 68.424-6.77 100.187-19.93a261.863 261.863 0 0 0 84.934-56.75 261.822 261.822 0 0 0 56.751-84.93A261.826 261.826 0 0 0 830.8 922.5H943Z" fill="#F27878"/><path fill-rule="evenodd" clip-rule="evenodd" d="M291.619 1173.37a373.815 373.815 0 0 1-42.277-56.72l82.745-82.74a261.933 261.933 0 0 0 39.012 59.98l-79.48 79.48Zm132.084-33.09a261.496 261.496 0 0 0 45.111 24.09c7.176 2.97 14.47 5.62 21.857 7.94l-86.105 86.1a373.8 373.8 0 0 1-61.287-37.71l80.424-80.42ZM476.972 1285l100.85-100.85a261.862 261.862 0 0 0 91.365-19.78 261.663 261.663 0 0 0 72.583-45.17l-177.275 177.27a373.728 373.728 0 0 1-87.523-11.47Zm203.484-5.49 245.551-245.55a373.747 373.747 0 0 1-11.476 31.66 373.986 373.986 0 0 1-81.073 121.34 373.889 373.889 0 0 1-121.334 81.07 375.465 375.465 0 0 1-31.668 11.48ZM938.467 922.5l-172.77 172.77a261.838 261.838 0 0 0 45.175-72.58 261.853 261.853 0 0 0 19.78-91.369l8.821-8.821h98.994Zm-628.923 34.953-92.248 92.247a374.032 374.032 0 0 1-19.27-79.724L307.2 860.802V922.5c0 11.716.787 23.392 2.344 34.953ZM307.2 761.807 195 874.007v-98.994l112.2-112.2v98.994Zm0-197.989L195 676.018v-98.995l112.2-112.2v98.995Zm0-197.99L195 478.028v-98.995l112.2-112.2v98.995Zm0-197.99L195 280.038v-98.995l112.2-112.2v98.995ZM277.048 0 195 82.048V0h82.048Z" fill="#fff"/></g><g filter="url(#d)"><path d="M1246 922.5c0 49.114-9.67 97.75-28.47 143.12a373.882 373.882 0 0 1-81.07 121.34 373.882 373.882 0 0 1-121.34 81.07A373.878 373.878 0 0 1 872 1296.5c-49.114 0-97.748-9.67-143.123-28.47a373.893 373.893 0 0 1-121.335-81.07 374.002 374.002 0 0 1-81.073-121.34A373.967 373.967 0 0 1 498 922.5V0h112.2v922.5a261.79 261.79 0 0 0 161.614 241.87A261.737 261.737 0 0 0 872 1184.3c34.38 0 68.424-6.77 100.187-19.93a261.848 261.848 0 0 0 84.933-56.75 261.708 261.708 0 0 0 56.75-84.93 261.772 261.772 0 0 0 19.93-100.19H1246Z" fill="#F27878"/><path fill-rule="evenodd" clip-rule="evenodd" d="M594.619 1173.37a373.815 373.815 0 0 1-42.277-56.72l82.745-82.74a261.933 261.933 0 0 0 39.012 59.98l-79.48 79.48Zm132.084-33.09a261.496 261.496 0 0 0 45.111 24.09c7.176 2.97 14.47 5.62 21.857 7.94l-86.105 86.1a373.8 373.8 0 0 1-61.287-37.71l80.424-80.42ZM779.972 1285l100.85-100.85a261.862 261.862 0 0 0 91.365-19.78 261.706 261.706 0 0 0 72.583-45.17l-177.275 177.27a373.728 373.728 0 0 1-87.523-11.47Zm203.484-5.49 245.554-245.55c-3.35 10.7-7.17 21.27-11.48 31.66a373.882 373.882 0 0 1-81.07 121.34 373.882 373.882 0 0 1-121.34 81.07 374.623 374.623 0 0 1-31.664 11.48ZM1241.47 922.5l-172.77 172.77a261.705 261.705 0 0 0 45.17-72.58 261.898 261.898 0 0 0 19.78-91.369l8.82-8.821h99Zm-628.926 34.953-92.248 92.247a374.032 374.032 0 0 1-19.27-79.724L610.2 860.802V922.5c0 11.716.787 23.392 2.344 34.953ZM610.2 761.807 498 874.007v-98.994l112.2-112.2v98.994Zm0-197.989L498 676.018v-98.995l112.2-112.2v98.995Zm0-197.99L498 478.028v-98.995l112.2-112.2v98.995Zm0-197.99L498 280.038v-98.995l112.2-112.2v98.995ZM580.048 0 498 82.048V0h82.048Z" fill="#fff"/></g><g filter="url(#e)"><path d="M1549 922.5c0 49.114-9.67 97.75-28.47 143.12a373.882 373.882 0 0 1-81.07 121.34 373.882 373.882 0 0 1-121.34 81.07A373.889 373.889 0 0 1 1175 1296.5c-49.11 0-97.75-9.67-143.12-28.47a373.874 373.874 0 0 1-121.338-81.07 374.002 374.002 0 0 1-81.073-121.34A373.967 373.967 0 0 1 801 922.5V0h112.2v922.5a261.79 261.79 0 0 0 76.68 185.12 261.783 261.783 0 0 0 285.31 56.75 261.867 261.867 0 0 0 84.93-56.75 261.708 261.708 0 0 0 56.75-84.93 261.772 261.772 0 0 0 19.93-100.19H1549Z" fill="#F27878"/><path fill-rule="evenodd" clip-rule="evenodd" d="M897.619 1173.37a373.815 373.815 0 0 1-42.277-56.72l82.745-82.74a261.933 261.933 0 0 0 39.012 59.98l-79.48 79.48Zm132.081-33.09a261.67 261.67 0 0 0 45.11 24.09 264.25 264.25 0 0 0 21.86 7.94l-86.1 86.1a373.668 373.668 0 0 1-61.291-37.71l80.421-80.42Zm53.27 144.72 100.85-100.85c31.37-1.06 62.32-7.75 91.37-19.78a261.705 261.705 0 0 0 72.58-45.17l-177.28 177.27c-29.58-.35-58.95-4.22-87.52-11.47Zm203.49-5.49 245.55-245.55c-3.35 10.7-7.17 21.27-11.48 31.66a373.882 373.882 0 0 1-81.07 121.34 373.882 373.882 0 0 1-121.34 81.07 375.172 375.172 0 0 1-31.66 11.48Zm258.01-357.01-172.77 172.77a261.705 261.705 0 0 0 45.17-72.58 261.898 261.898 0 0 0 19.78-91.369l8.82-8.821h99Zm-628.926 34.953-92.248 92.247a374.032 374.032 0 0 1-19.27-79.724L913.2 860.802V922.5c0 11.716.787 23.392 2.344 34.953ZM913.2 761.807 801 874.007v-98.994l112.2-112.2v98.994Zm0-197.989L801 676.018v-98.995l112.2-112.2v98.995Zm0-197.99L801 478.028v-98.995l112.2-112.2v98.995Zm0-197.99L801 280.038v-98.995l112.2-112.2v98.995ZM883.048 0 801 82.048V0h82.048Z" fill="#fff"/></g><g filter="url(#f)"><path d="M1852 922.5c0 49.114-9.67 97.75-28.47 143.12a373.882 373.882 0 0 1-81.07 121.34 373.882 373.882 0 0 1-121.34 81.07A373.889 373.889 0 0 1 1478 1296.5c-49.11 0-97.75-9.67-143.12-28.47a373.882 373.882 0 0 1-121.34-81.07 373.882 373.882 0 0 1-81.07-121.34A373.874 373.874 0 0 1 1104 922.5V0h112.2v922.5c0 34.38 6.77 68.423 19.93 100.19a261.867 261.867 0 0 0 56.75 84.93 261.783 261.783 0 0 0 285.31 56.75 261.867 261.867 0 0 0 84.93-56.75 261.708 261.708 0 0 0 56.75-84.93 261.772 261.772 0 0 0 19.93-100.19H1852Z" fill="#F27878"/><path fill-rule="evenodd" clip-rule="evenodd" d="M1200.62 1173.37a374.369 374.369 0 0 1-42.28-56.72l82.75-82.74a261.925 261.925 0 0 0 39.01 59.98l-79.48 79.48Zm132.08-33.09a261.67 261.67 0 0 0 45.11 24.09 264.25 264.25 0 0 0 21.86 7.94l-86.1 86.1a373.449 373.449 0 0 1-61.29-37.71l80.42-80.42Zm53.27 144.72 100.85-100.85c31.37-1.06 62.32-7.75 91.37-19.78a261.705 261.705 0 0 0 72.58-45.17l-177.28 177.27c-29.58-.35-58.95-4.22-87.52-11.47Zm203.49-5.49 245.55-245.55c-3.35 10.7-7.17 21.27-11.48 31.66a373.882 373.882 0 0 1-81.07 121.34 373.882 373.882 0 0 1-121.34 81.07 375.172 375.172 0 0 1-31.66 11.48Zm258.01-357.01-172.77 172.77a261.705 261.705 0 0 0 45.17-72.58 261.898 261.898 0 0 0 19.78-91.369l8.82-8.821h99Zm-628.93 34.953-92.24 92.247a373.432 373.432 0 0 1-19.27-79.724l109.17-109.174V922.5c0 11.716.79 23.392 2.34 34.953Zm-2.34-195.646-112.2 112.2v-98.994l112.2-112.2v98.994Zm0-197.989-112.2 112.2v-98.995l112.2-112.2v98.995Zm0-197.99-112.2 112.2v-98.995l112.2-112.2v98.995Zm0-197.99-112.2 112.2v-98.995l112.2-112.2v98.995ZM1186.05 0 1104 82.048V0h82.05Z" fill="#fff"/></g></g><defs><filter id="c" x="185" y="-10" width="788" height="1336.5" filterUnits="userSpaceOnUse" color-interpolation-filters="sRGB"><feFlood flood-opacity="0" result="BackgroundImageFix"/><feColorMatrix in="SourceAlpha" values="0 0 0 0 0 0 0 0 0 0 0 0 0 0 0 0 0 0 127 0" result="hardAlpha"/><feOffset dx="10" dy="10"/><feGaussianBlur stdDeviation="10"/><feColorMatrix values="0 0 0 0 0 0 0 0 0 0 0 0 0 0 0 0 0 0 0.25 0"/><feBlend in2="BackgroundImageFix" result="effect1_dropShadow_3645_7597"/><feBlend in="SourceGraphic" in2="effect1_dropShadow_3645_7597" result="shape"/></filter><filter id="d" x="488" y="-10" width="788" height="1336.5" filterUnits="userSpaceOnUse" color-interpolation-filters="sRGB"><feFlood flood-opacity="0" result="BackgroundImageFix"/><feColorMatrix in="SourceAlpha" values="0 0 0 0 0 0 0 0 0 0 0 0 0 0 0 0 0 0 127 0" result="hardAlpha"/><feOffset dx="10" dy="10"/><feGaussianBlur stdDeviation="10"/><feColorMatrix values="0 0 0 0 0 0 0 0 0 0 0 0 0 0 0 0 0 0 0.25 0"/><feBlend in2="BackgroundImageFix" result="effect1_dropShadow_3645_7597"/><feBlend in="SourceGraphic" in2="effect1_dropShadow_3645_7597" result="shape"/></filter><filter id="e" x="791" y="-10" width="788" height="1336.5" filterUnits="userSpaceOnUse" color-interpolation-filters="sRGB"><feFlood flood-opacity="0" result="BackgroundImageFix"/><feColorMatrix in="SourceAlpha" values="0 0 0 0 0 0 0 0 0 0 0 0 0 0 0 0 0 0 127 0" result="hardAlpha"/><feOffset dx="10" dy="10"/><feGaussianBlur stdDeviation="10"/><feColorMatrix values="0 0 0 0 0 0 0 0 0 0 0 0 0 0 0 0 0 0 0.25 0"/><feBlend in2="BackgroundImageFix" result="effect1_dropShadow_3645_7597"/><feBlend in="SourceGraphic" in2="effect1_dropShadow_3645_7597" result="shape"/></filter><filter id="f" x="1094" y="-10" width="788" height="1336.5" filterUnits="userSpaceOnUse" color-interpolation-filters="sRGB"><feFlood flood-opacity="0" result="BackgroundImageFix"/><feColorMatrix in="SourceAlpha" values="0 0 0 0 0 0 0 0 0 0 0 0 0 0 0 0 0 0 127 0" result="hardAlpha"/><feOffset dx="10" dy="10"/><feGaussianBlur stdDeviation="10"/><feColorMatrix values="0 0 0 0 0 0 0 0 0 0 0 0 0 0 0 0 0 0 0.25 0"/><feBlend in2="BackgroundImageFix" result="effect1_dropShadow_3645_7597"/><feBlend in="SourceGraphic" in2="effect1_dropShadow_3645_7597" result="shape"/></filter><linearGradient id="b" x1="2048" y1="0" x2="0" y2="2048" gradientUnits="userSpaceOnUse"><stop stop-color="#65CC76"/><stop offset="1" stop-color="#68D49E"/></linearGradient><clipPath id="a"><path fill="#fff" d="M0 0h2048v2048H0z"/></clipPath></defs></svg>

<svg width="2048" height="2048" viewBox="0 0 2048 2048" fill="none" xmlns="http://www.w3.org/2000/svg">
<g clip-path="url(#clip0_3645_7597)">
<rect width="2048" height="2048" fill="url(#paint0_linear_3645_7597)"/>
<g filter="url(#filter0_d_3645_7597)">
<path d="M943 922.5C943 971.614 933.326 1020.25 914.531 1065.62C895.736 1111 868.187 1152.23 833.458 1186.96C798.729 1221.69 757.5 1249.24 712.124 1268.03C666.748 1286.83 618.115 1296.5 569 1296.5C519.886 1296.5 471.252 1286.83 425.877 1268.03C380.501 1249.24 339.271 1221.69 304.542 1186.96C269.813 1152.23 242.265 1111 223.469 1065.62C204.674 1020.25 195 971.614 195 922.5L195 0L307.2 -9.80884e-06L307.2 922.5C307.2 956.88 313.972 990.923 327.129 1022.69C340.285 1054.45 359.569 1083.31 383.88 1107.62C408.19 1131.93 437.051 1151.21 468.814 1164.37C500.577 1177.53 534.62 1184.3 569 1184.3C603.38 1184.3 637.424 1177.53 669.187 1164.37C700.95 1151.21 729.81 1131.93 754.121 1107.62C778.431 1083.31 797.715 1054.45 810.872 1022.69C824.029 990.923 830.8 956.88 830.8 922.5L943 922.5Z" fill="#F27878"/>
<path fill-rule="evenodd" clip-rule="evenodd" d="M291.619 1173.37C275.747 1155.82 261.596 1136.83 249.342 1116.65L332.087 1033.91C342.288 1055.6 355.418 1075.78 371.099 1093.89L291.619 1173.37ZM423.703 1140.28C437.884 1149.74 452.988 1157.82 468.814 1164.37C475.99 1167.34 483.284 1169.99 490.671 1172.31L404.566 1258.41C382.953 1247.83 362.431 1235.2 343.279 1220.7L423.703 1140.28ZM476.972 1285L577.822 1184.15C609.193 1183.09 640.143 1176.4 669.187 1164.37C695.728 1153.38 720.243 1138.11 741.77 1119.2L564.495 1296.47C534.912 1296.12 505.535 1292.25 476.972 1285ZM680.456 1279.51L926.007 1033.96C922.665 1044.66 918.837 1055.23 914.531 1065.62C895.736 1111 868.187 1152.23 833.458 1186.96C798.729 1221.69 757.5 1249.24 712.124 1268.03C701.728 1272.34 691.161 1276.16 680.456 1279.51ZM938.467 922.5L765.697 1095.27C784.606 1073.74 799.878 1049.23 810.872 1022.69C822.902 993.643 829.594 962.692 830.652 931.321L839.473 922.5L938.467 922.5ZM309.544 957.453L217.296 1049.7C207.959 1023.88 201.503 997.147 198.026 969.976L307.2 860.802L307.2 922.5C307.2 934.216 307.987 945.892 309.544 957.453ZM307.2 761.807L195 874.007L195 775.013L307.2 662.813L307.2 761.807ZM307.2 563.818L195 676.018L195 577.023L307.2 464.823L307.2 563.818ZM307.2 365.828L195 478.028L195 379.033L307.2 266.833L307.2 365.828ZM307.2 167.838L195 280.038L195 181.043L307.2 68.8431L307.2 167.838ZM277.048 -0.000241552L195 82.0481L195 -0.00023438L277.048 -0.000241552Z" fill="white"/>
</g>
<g filter="url(#filter1_d_3645_7597)">
<path d="M1246 922.5C1246 971.614 1236.33 1020.25 1217.53 1065.62C1198.74 1111 1171.19 1152.23 1136.46 1186.96C1101.73 1221.69 1060.5 1249.24 1015.12 1268.03C969.748 1286.83 921.115 1296.5 872 1296.5C822.886 1296.5 774.252 1286.83 728.877 1268.03C683.501 1249.24 642.271 1221.69 607.542 1186.96C572.813 1152.23 545.265 1111 526.469 1065.62C507.674 1020.25 498 971.614 498 922.5L498 0L610.2 -9.80884e-06L610.2 922.5C610.2 956.88 616.972 990.923 630.129 1022.69C643.285 1054.45 662.569 1083.31 686.88 1107.62C711.19 1131.93 740.051 1151.21 771.814 1164.37C803.577 1177.53 837.62 1184.3 872 1184.3C906.38 1184.3 940.424 1177.53 972.187 1164.37C1003.95 1151.21 1032.81 1131.93 1057.12 1107.62C1081.43 1083.31 1100.72 1054.45 1113.87 1022.69C1127.03 990.923 1133.8 956.88 1133.8 922.5L1246 922.5Z" fill="#F27878"/>
<path fill-rule="evenodd" clip-rule="evenodd" d="M594.619 1173.37C578.747 1155.82 564.596 1136.83 552.342 1116.65L635.087 1033.91C645.288 1055.6 658.418 1075.78 674.099 1093.89L594.619 1173.37ZM726.703 1140.28C740.884 1149.74 755.988 1157.82 771.814 1164.37C778.99 1167.34 786.284 1169.99 793.671 1172.31L707.566 1258.41C685.953 1247.83 665.431 1235.2 646.279 1220.7L726.703 1140.28ZM779.972 1285L880.822 1184.15C912.193 1183.09 943.143 1176.4 972.187 1164.37C998.728 1153.38 1023.24 1138.11 1044.77 1119.2L867.495 1296.47C837.912 1296.12 808.535 1292.25 779.972 1285ZM983.456 1279.51L1229.01 1033.96C1225.66 1044.66 1221.84 1055.23 1217.53 1065.62C1198.74 1111 1171.19 1152.23 1136.46 1186.96C1101.73 1221.69 1060.5 1249.24 1015.12 1268.03C1004.73 1272.34 994.161 1276.16 983.456 1279.51ZM1241.47 922.5L1068.7 1095.27C1087.61 1073.74 1102.88 1049.23 1113.87 1022.69C1125.9 993.643 1132.59 962.692 1133.65 931.321L1142.47 922.5L1241.47 922.5ZM612.544 957.453L520.296 1049.7C510.959 1023.88 504.503 997.147 501.026 969.976L610.2 860.802L610.2 922.5C610.2 934.216 610.987 945.892 612.544 957.453ZM610.2 761.807L498 874.007L498 775.013L610.2 662.813L610.2 761.807ZM610.2 563.818L498 676.018L498 577.023L610.2 464.823L610.2 563.818ZM610.2 365.828L498 478.028L498 379.033L610.2 266.833L610.2 365.828ZM610.2 167.838L498 280.038L498 181.043L610.2 68.8431L610.2 167.838ZM580.048 -0.000241552L498 82.0481L498 -0.00023438L580.048 -0.000241552Z" fill="white"/>
</g>
<g filter="url(#filter2_d_3645_7597)">
<path d="M1549 922.5C1549 971.614 1539.33 1020.25 1520.53 1065.62C1501.74 1111 1474.19 1152.23 1439.46 1186.96C1404.73 1221.69 1363.5 1249.24 1318.12 1268.03C1272.75 1286.83 1224.11 1296.5 1175 1296.5C1125.89 1296.5 1077.25 1286.83 1031.88 1268.03C986.501 1249.24 945.271 1221.69 910.542 1186.96C875.813 1152.23 848.265 1111 829.469 1065.62C810.674 1020.25 801 971.614 801 922.5L801 0L913.2 -9.80884e-06L913.2 922.5C913.2 956.88 919.972 990.923 933.129 1022.69C946.285 1054.45 965.569 1083.31 989.88 1107.62C1014.19 1131.93 1043.05 1151.21 1074.81 1164.37C1106.58 1177.53 1140.62 1184.3 1175 1184.3C1209.38 1184.3 1243.42 1177.53 1275.19 1164.37C1306.95 1151.21 1335.81 1131.93 1360.12 1107.62C1384.43 1083.31 1403.72 1054.45 1416.87 1022.69C1430.03 990.923 1436.8 956.88 1436.8 922.5L1549 922.5Z" fill="#F27878"/>
<path fill-rule="evenodd" clip-rule="evenodd" d="M897.619 1173.37C881.747 1155.82 867.596 1136.83 855.342 1116.65L938.087 1033.91C948.288 1055.6 961.418 1075.78 977.099 1093.89L897.619 1173.37ZM1029.7 1140.28C1043.88 1149.74 1058.99 1157.82 1074.81 1164.37C1081.99 1167.34 1089.28 1169.99 1096.67 1172.31L1010.57 1258.41C988.953 1247.83 968.431 1235.2 949.279 1220.7L1029.7 1140.28ZM1082.97 1285L1183.82 1184.15C1215.19 1183.09 1246.14 1176.4 1275.19 1164.37C1301.73 1153.38 1326.24 1138.11 1347.77 1119.2L1170.49 1296.47C1140.91 1296.12 1111.54 1292.25 1082.97 1285ZM1286.46 1279.51L1532.01 1033.96C1528.66 1044.66 1524.84 1055.23 1520.53 1065.62C1501.74 1111 1474.19 1152.23 1439.46 1186.96C1404.73 1221.69 1363.5 1249.24 1318.12 1268.03C1307.73 1272.34 1297.16 1276.16 1286.46 1279.51ZM1544.47 922.5L1371.7 1095.27C1390.61 1073.74 1405.88 1049.23 1416.87 1022.69C1428.9 993.643 1435.59 962.692 1436.65 931.321L1445.47 922.5L1544.47 922.5ZM915.544 957.453L823.296 1049.7C813.959 1023.88 807.503 997.147 804.026 969.976L913.2 860.802L913.2 922.5C913.2 934.216 913.987 945.892 915.544 957.453ZM913.2 761.807L801 874.007L801 775.013L913.2 662.813L913.2 761.807ZM913.2 563.818L801 676.018L801 577.023L913.2 464.823L913.2 563.818ZM913.2 365.828L801 478.028L801 379.033L913.2 266.833L913.2 365.828ZM913.2 167.838L801 280.038L801 181.043L913.2 68.8431L913.2 167.838ZM883.048 -0.000241552L801 82.0481L801 -0.00023438L883.048 -0.000241552Z" fill="white"/>
</g>
<g filter="url(#filter3_d_3645_7597)">
<path d="M1852 922.5C1852 971.614 1842.33 1020.25 1823.53 1065.62C1804.74 1111 1777.19 1152.23 1742.46 1186.96C1707.73 1221.69 1666.5 1249.24 1621.12 1268.03C1575.75 1286.83 1527.11 1296.5 1478 1296.5C1428.89 1296.5 1380.25 1286.83 1334.88 1268.03C1289.5 1249.24 1248.27 1221.69 1213.54 1186.96C1178.81 1152.23 1151.26 1111 1132.47 1065.62C1113.67 1020.25 1104 971.614 1104 922.5L1104 0L1216.2 -9.80884e-06L1216.2 922.5C1216.2 956.88 1222.97 990.923 1236.13 1022.69C1249.29 1054.45 1268.57 1083.31 1292.88 1107.62C1317.19 1131.93 1346.05 1151.21 1377.81 1164.37C1409.58 1177.53 1443.62 1184.3 1478 1184.3C1512.38 1184.3 1546.42 1177.53 1578.19 1164.37C1609.95 1151.21 1638.81 1131.93 1663.12 1107.62C1687.43 1083.31 1706.72 1054.45 1719.87 1022.69C1733.03 990.923 1739.8 956.88 1739.8 922.5L1852 922.5Z" fill="#F27878"/>
<path fill-rule="evenodd" clip-rule="evenodd" d="M1200.62 1173.37C1184.75 1155.82 1170.6 1136.83 1158.34 1116.65L1241.09 1033.91C1251.29 1055.6 1264.42 1075.78 1280.1 1093.89L1200.62 1173.37ZM1332.7 1140.28C1346.88 1149.74 1361.99 1157.82 1377.81 1164.37C1384.99 1167.34 1392.28 1169.99 1399.67 1172.31L1313.57 1258.41C1291.95 1247.83 1271.43 1235.2 1252.28 1220.7L1332.7 1140.28ZM1385.97 1285L1486.82 1184.15C1518.19 1183.09 1549.14 1176.4 1578.19 1164.37C1604.73 1153.38 1629.24 1138.11 1650.77 1119.2L1473.49 1296.47C1443.91 1296.12 1414.54 1292.25 1385.97 1285ZM1589.46 1279.51L1835.01 1033.96C1831.66 1044.66 1827.84 1055.23 1823.53 1065.62C1804.74 1111 1777.19 1152.23 1742.46 1186.96C1707.73 1221.69 1666.5 1249.24 1621.12 1268.03C1610.73 1272.34 1600.16 1276.16 1589.46 1279.51ZM1847.47 922.5L1674.7 1095.27C1693.61 1073.74 1708.88 1049.23 1719.87 1022.69C1731.9 993.643 1738.59 962.692 1739.65 931.321L1748.47 922.5L1847.47 922.5ZM1218.54 957.453L1126.3 1049.7C1116.96 1023.88 1110.5 997.147 1107.03 969.976L1216.2 860.802L1216.2 922.5C1216.2 934.216 1216.99 945.892 1218.54 957.453ZM1216.2 761.807L1104 874.007L1104 775.013L1216.2 662.813L1216.2 761.807ZM1216.2 563.818L1104 676.018L1104 577.023L1216.2 464.823L1216.2 563.818ZM1216.2 365.828L1104 478.028L1104 379.033L1216.2 266.833L1216.2 365.828ZM1216.2 167.838L1104 280.038L1104 181.043L1216.2 68.8431L1216.2 167.838ZM1186.05 -0.000241552L1104 82.0481L1104 -0.00023438L1186.05 -0.000241552Z" fill="white"/>
</g>
</g>
<defs>
<filter id="filter0_d_3645_7597" x="185" y="-10.0002" width="788" height="1336.5" filterUnits="userSpaceOnUse" color-interpolation-filters="sRGB">
<feFlood flood-opacity="0" result="BackgroundImageFix"/>
<feColorMatrix in="SourceAlpha" type="matrix" values="0 0 0 0 0 0 0 0 0 0 0 0 0 0 0 0 0 0 127 0" result="hardAlpha"/>
<feOffset dx="10" dy="10"/>
<feGaussianBlur stdDeviation="10"/>
<feColorMatrix type="matrix" values="0 0 0 0 0 0 0 0 0 0 0 0 0 0 0 0 0 0 0.25 0"/>
<feBlend mode="normal" in2="BackgroundImageFix" result="effect1_dropShadow_3645_7597"/>
<feBlend mode="normal" in="SourceGraphic" in2="effect1_dropShadow_3645_7597" result="shape"/>
</filter>
<filter id="filter1_d_3645_7597" x="488" y="-10.0002" width="788" height="1336.5" filterUnits="userSpaceOnUse" color-interpolation-filters="sRGB">
<feFlood flood-opacity="0" result="BackgroundImageFix"/>
<feColorMatrix in="SourceAlpha" type="matrix" values="0 0 0 0 0 0 0 0 0 0 0 0 0 0 0 0 0 0 127 0" result="hardAlpha"/>
<feOffset dx="10" dy="10"/>
<feGaussianBlur stdDeviation="10"/>
<feColorMatrix type="matrix" values="0 0 0 0 0 0 0 0 0 0 0 0 0 0 0 0 0 0 0.25 0"/>
<feBlend mode="normal" in2="BackgroundImageFix" result="effect1_dropShadow_3645_7597"/>
<feBlend mode="normal" in="SourceGraphic" in2="effect1_dropShadow_3645_7597" result="shape"/>
</filter>
<filter id="filter2_d_3645_7597" x="791" y="-10.0002" width="788" height="1336.5" filterUnits="userSpaceOnUse" color-interpolation-filters="sRGB">
<feFlood flood-opacity="0" result="BackgroundImageFix"/>
<feColorMatrix in="SourceAlpha" type="matrix" values="0 0 0 0 0 0 0 0 0 0 0 0 0 0 0 0 0 0 127 0" result="hardAlpha"/>
<feOffset dx="10" dy="10"/>
<feGaussianBlur stdDeviation="10"/>
<feColorMatrix type="matrix" values="0 0 0 0 0 0 0 0 0 0 0 0 0 0 0 0 0 0 0.25 0"/>
<feBlend mode="normal" in2="BackgroundImageFix" result="effect1_dropShadow_3645_7597"/>
<feBlend mode="normal" in="SourceGraphic" in2="effect1_dropShadow_3645_7597" result="shape"/>
</filter>
<filter id="filter3_d_3645_7597" x="1094" y="-10.0002" width="788" height="1336.5" filterUnits="userSpaceOnUse" color-interpolation-filters="sRGB">
<feFlood flood-opacity="0" result="BackgroundImageFix"/>
<feColorMatrix in="SourceAlpha" type="matrix" values="0 0 0 0 0 0 0 0 0 0 0 0 0 0 0 0 0 0 127 0" result="hardAlpha"/>
<feOffset dx="10" dy="10"/>
<feGaussianBlur stdDeviation="10"/>
<feColorMatrix type="matrix" values="0 0 0 0 0 0 0 0 0 0 0 0 0 0 0 0 0 0 0.25 0"/>
<feBlend mode="normal" in2="BackgroundImageFix" result="effect1_dropShadow_3645_7597"/>
<feBlend mode="normal" in="SourceGraphic" in2="effect1_dropShadow_3645_7597" result="shape"/>
</filter>
<linearGradient id="paint0_linear_3645_7597" x1="2048" y1="0" x2="0" y2="2048" gradientUnits="userSpaceOnUse">
<stop stop-color="#65CC76"/>
<stop offset="1" stop-color="#68D49E"/>
</linearGradient>
<clipPath id="clip0_3645_7597">
<rect width="2048" height="2048" fill="white"/>
</clipPath>
</defs>
</svg>
